X: 15629
T: Goblet Of Wine, The
R: waltz
M: 3/4
K: Gmajor
B2|e2 B2 A2|G>F E2 g2|f2 f^d e>f|B4 AB|
c2 c2 B2|{B}A4 A>B|cB AG FE|B4 B2|
G2>A2 Bc|d4 ce|d2 cB TA2|G4 B>c|
d<B g2 d2|d2 cB cd/e/|{e}d2 cB AG|
D4 EF|GF EF GA|B2 B2 e^d|e2 G2 E2|
B4 B2|c2 c2 c2|B2>c2 Bc|A2>B2 AB|
G2>B2 AG|cB AG FE|B4 GF|E2 G2 B2|
e2 dc BA|BA B2 B2|E4 z2|

